X:49
T: Nekem is volt édesanyám de már nincs...
K: F
M: 4/4
L: 1/4
gdgd | g<g f2 |
e/f/g/f/ e/d/a | g<d d2 | 
fgdg | f/d/B/G/ | c<c d2 | 
A/B/c/B/ A/G/ d | c<G G2 | 

